svg/reflect_horizontal.svg

<svg xmlns="http://www.w3.org/2000/svg" viewBox="0 0 24 24"><path d="M22 20h-8a1 1 0 0 1-1-1V4.97a1 1 0 0 1 .74-.97c.45-.12.91.08 1.13.47l8.02 14.03c.18.31.18.69 0 1s-.51.5-.89.5M2 20c-.38 0-.71-.19-.89-.5a.99.99 0 0 1 0-1L9.13 4.47c.22-.39.68-.59 1.13-.47a1 1 0 0 1 .74.97V19a1 1 0 0 1-1 1zm7-2V8.74L3.71 18z"/></svg>

<?xml version="1.0" encoding="UTF-8"?><!DOCTYPE svg PUBLIC "-//W3C//DTD SVG 1.1//EN" "http://www.w3.org/Graphics/SVG/1.1/DTD/svg11.dtd"><svg xmlns="http://www.w3.org/2000/svg" xmlns:xlink="http://www.w3.org/1999/xlink" version="1.1" id="mdi-reflect-horizontal" width="24" height="24" viewBox="0 0 24 24"><path d="M22,20H14A1,1 0 0,1 13,19V4.97C13,4.5 13.31,4.12 13.74,4C14.19,3.88 14.65,4.08 14.87,4.47L22.89,18.5C23.07,18.81 23.07,19.19 22.89,19.5C22.71,19.81 22.38,20 22,20M2,20C1.62,20 1.29,19.81 1.11,19.5C0.93,19.19 0.93,18.81 1.11,18.5L9.13,4.47C9.35,4.08 9.81,3.88 10.26,4C10.69,4.12 11,4.5 11,4.97V19A1,1 0 0,1 10,20H2M9,18V8.74L3.71,18H9Z" /></svg>
